X:1

T:Barren Rocks of Aden, The

M:C

L:1/8

R:March

B:Skinner – The Scottish Violinist

Z:AK/Fiddler’s Companion

K:D

e | fg f>e df A/<A/d | ce A/<A/e f>A d>e | f>g fe df A/<A/d | ce A/<A/f/e/ (d2d) :|

|: f/g/ | a>f df ef A/<A/e/f/ | ~ge ce df A/<A/f/g/ | a>f df ef A/<A/e/f/ | {f}gAca {a}(D2d) :|

“variations”

d/e/ | f/e/f/g/ f/a/g/e/ d/e/f/d/ A/<A/d | c/d/e/c/ A/<A/e f/A/a/A/ B/c/d/e/ |

f/e/f/g/ f/a/g/e/ d/e/f/d/ A/<A/d | c/d/e/c/ A/<A/f {f}d2 d :|

f/g/ | a/f/d/f/ f/a/d/f/ ef A/<A/e/f/ | g/e/c/e/ e/g/c/e/ df A/<A/f/g/ |

a/f/d/f/ f/a/d/f/ ef A/<A/e/f/ | g/e/c/e/ e/a/c/e/ (d2 d) f/g/ | a/f/d/A/ A/f/d/f/ a/f/d/A/ A/f/d/f/ |

g/e/c/A/ A/e/c/e/ g/e/c/A/ A/e/c/e/ | a/f/d/A/ A/f/d/f/ a/f/d/A/ A/f/d/f/ |

g/e/c/A/ A/e/c/a/ {f}d2 [Fd] ||

